COLOR/categories 16/16/preferences-system-parental-control.svg

<svg height="16" width="16" xmlns="http://www.w3.org/2000/svg"><circle cx="8" cy="8" fill="#1a7fd4" r="7.5"/><path d="m8 .5a7.5 7.5 0 0 0 -7.5 7.5 7.5 7.5 0 0 0 .00976562.2871094 7.5 7.5 0 0 1 7.49023438-7.2871094 7.5 7.5 0 0 1 7.490234 7.2128906 7.5 7.5 0 0 0 .009766-.2128906 7.5 7.5 0 0 0 -7.5-7.5z" fill="#fff" opacity=".3"/><path d="m15.490234 7.7128906a7.5 7.5 0 0 1 -7.490234 7.2871094 7.5 7.5 0 0 1 -7.49023438-7.2128906 7.5 7.5 0 0 0 -.00976562.2128906 7.5 7.5 0 0 0 7.5 7.5 7.5 7.5 0 0 0 7.5-7.5 7.5 7.5 0 0 0 -.009766-.2871094z" fill="#060606" opacity=".2"/><path d="m6.0360203 3.0000001c-.3957143 0-.7142857.3185714-.7142857.7142857v.7142856c0 .3957143.3185714.7142857.7142857.7142857h.7142857c.3957143 0 .7142857-.3185714.7142857-.7142857v-.7142856c0-.3957143-.3185714-.7142857-.7142857-.7142857zm-.3371429 2.8571428-.3771428.2735714-1.3907143 2.7814281c-.2392856.4357147.4357144.7714287.6385715.3185717l.7521428-1.5042857.2714286-.8035713-.2714286 2.505714v3.5714289h.7142857v-2.857143h.7142857v2.857143h.7142857v-3.5714289l-.3771429-2.5085712.3771429.8071429.7521428 1.5035713a.35714284.35714284 0 0 0 .16.16l1.2307142.6157139v2.993572h1.4285723v-2.352143l.461427.462143c.337144.35.855715-.168572.505714-.505715l-.967141-.9664279v-.209286h-.987858l-1.2457142-.6235716-1.3378571-2.6742852-.495-.2735714zm3.9085713 1.4285713v1.4285711h1.4285723v-1.4285711z" fill="#fff" stroke-width=".714286"/></svg>

<?xml version="1.0" encoding="UTF-8" standalone="no"?>
<svg
   xmlns:dc="http://purl.org/dc/elements/1.1/"
   xmlns:cc="http://creativecommons.org/ns#"
   xmlns:rdf="http://www.w3.org/1999/02/22-rdf-syntax-ns#"
   xmlns:svg="http://www.w3.org/2000/svg"
   xmlns="http://www.w3.org/2000/svg"
   xmlns:sodipodi="http://sodipodi.sourceforge.net/DTD/sodipodi-0.dtd"
   xmlns:inkscape="http://www.inkscape.org/namespaces/inkscape"
   height="16"
   width="16"
   version="1.1"
   id="svg14"
   sodipodi:docname="avatar-default.svg"
   inkscape:version="0.92.4 (5da689c313, 2019-01-14)">
  <metadata
     id="metadata20">
    <rdf:RDF>
      <cc:Work
         rdf:about="">
        <dc:format>image/svg+xml</dc:format>
        <dc:type
           rdf:resource="http://purl.org/dc/dcmitype/StillImage" />
        <dc:title></dc:title>
      </cc:Work>
    </rdf:RDF>
  </metadata>
  <defs
     id="defs18" />
  <sodipodi:namedview
     pagecolor="#ffffff"
     bordercolor="#666666"
     borderopacity="1"
     objecttolerance="10"
     gridtolerance="10"
     guidetolerance="10"
     inkscape:pageopacity="0"
     inkscape:pageshadow="2"
     inkscape:window-width="1920"
     inkscape:window-height="1016"
     id="namedview16"
     showgrid="false"
     inkscape:zoom="14.75"
     inkscape:cx="8"
     inkscape:cy="8"
     inkscape:window-x="0"
     inkscape:window-y="27"
     inkscape:window-maximized="1"
     inkscape:current-layer="svg14" />
  <circle
     cx="8"
     cy="8"
     fill="#1a7fd4"
     r="7.5"
     id="circle2" />
  <path
     d="m8 .5a7.5 7.5 0 0 0 -7.5 7.5 7.5 7.5 0 0 0 .00976562.2871094 7.5 7.5 0 0 1 7.49023438-7.2871094 7.5 7.5 0 0 1 7.490234 7.2128906 7.5 7.5 0 0 0 .009766-.2128906 7.5 7.5 0 0 0 -7.5-7.5z"
     fill="#fff"
     opacity=".3"
     id="path10" />
  <path
     d="m15.490234 7.7128906a7.5 7.5 0 0 1 -7.490234 7.2871094 7.5 7.5 0 0 1 -7.49023438-7.2128906 7.5 7.5 0 0 0 -.00976562.2128906 7.5 7.5 0 0 0 7.5 7.5 7.5 7.5 0 0 0 7.5-7.5 7.5 7.5 0 0 0 -.009766-.2871094z"
     fill="#060606"
     opacity=".2"
     id="path12" />
  <path
     id="path4530"
     d="m 6.0360203,3.0000001 c -0.3957143,0 -0.7142857,0.3185714 -0.7142857,0.7142857 v 0.7142856 c 0,0.3957143 0.3185714,0.7142857 0.7142857,0.7142857 H 6.750306 c 0.3957143,0 0.7142857,-0.3185714 0.7142857,-0.7142857 V 3.7142858 c 0,-0.3957143 -0.3185714,-0.7142857 -0.7142857,-0.7142857 z M 5.6988774,5.8571429 5.3217346,6.1307143 3.9310203,8.9121424 C 3.6917347,9.3478571 4.3667347,9.6835711 4.5695918,9.2307141 L 5.3217346,7.7264284 5.5931632,6.9228571 5.3217346,9.4285711 V 13 H 6.0360203 V 10.142857 H 6.750306 V 13 H 7.4645917 V 9.4285711 L 7.0874488,6.9199999 7.4645917,7.7271428 8.2167345,9.2307141 a 0.35714284,0.35714284 0 0 0 0.16,0.16 L 9.6074487,10.006428 V 13 H 11.036021 V 10.647857 L 11.497448,11.11 c 0.337144,0.35 0.855715,-0.168572 0.505714,-0.505715 L 11.036021,9.6378571 V 9.4285711 H 10.048163 L 8.8024488,8.8049995 7.4645917,6.1307143 6.9695917,5.8571429 Z M 9.6074487,7.2857142 V 8.7142853 H 11.036021 V 7.2857142 Z"
     inkscape:connector-curvature="0"
     style="fill:#ffffff;stroke-width:0.71428567;fill-opacity:1" />
</svg>
